.wordpress-org/icon.svg

<svg width="128" height="128" viewBox="0 0 128 128" fill="none" xmlns="http://www.w3.org/2000/svg">
<g clip-path="url(#clip0_495_2227)">
<rect width="128" height="128" fill="white"/>
<path d="M0 0H128V128H0V0Z" fill="#0A0F1D"/>
<path fill-rule="evenodd" clip-rule="evenodd" d="M165 8.3584V157H-74.691C-54.701 130.747 -28.8492 113.382 2.86462 104.904C50.9328 92.0538 43.3642 66.2481 87.0594 39.5361C115.68 22.0393 141.661 11.6467 165 8.3584Z" fill="url(#paint0_linear_495_2227)"/>
<g opacity="0.08">
<path d="M94.3709 35.5164H93.9562V156.587H94.3709V35.5164Z" fill="white"/>
<path d="M58.1184 64.0278H57.7037V156.587H58.1184V64.0278Z" fill="white"/>
<path d="M21.8659 97.9111H21.4512V156.587H21.8659V97.9111Z" fill="white"/>
<path d="M165 117.714H-29.4899V118.127H165V117.714Z" fill="white"/>
<path d="M165 57.5945H63.8153V58.0077H165V57.5945Z" fill="white"/>
</g>
<path d="M165 8V8.8351L164.899 8.84964C141.986 12.1833 116.516 22.3519 88.4922 39.3603L87.6248 39.8884C78.0634 45.7285 70.4443 51.8116 63.6203 58.7181C61.133 61.2355 58.7869 63.8188 56.2419 66.8036L55.3265 67.8845L54.1554 69.2916L48.4104 76.2742L47.8302 76.9714L47.2411 77.6738L46.6517 78.3703L46.0611 79.0615C40.8845 85.0887 36.754 89.0576 31.5135 92.7886C24.199 97.9962 15.3447 102.025 3.74096 105.17L3.24902 105.303C-28.3017 113.73 -54.0336 130.959 -73.9586 157H-75L-74.8314 156.778C-54.766 130.436 -28.8067 113.009 3.03428 104.505C14.788 101.365 23.6984 97.3369 31.0313 92.1162C36.878 87.9535 41.3346 83.4835 47.4816 76.0963L53.4226 68.878L54.6149 67.4442L54.8372 67.1797L55.6106 66.2676C58.1675 63.2688 60.5267 60.6712 63.0293 58.1383C69.8998 51.1848 77.5716 45.0596 87.1913 39.1838C115.736 21.7485 141.671 11.3522 165 8Z" fill="#FFB200"/>
<path d="M40.171 86.0775C41.056 86.0775 41.7734 85.3621 41.7734 84.4796C41.7734 83.5972 41.056 82.8818 40.171 82.8818C39.2861 82.8818 38.5687 83.5972 38.5687 84.4796C38.5687 85.3621 39.2861 86.0775 40.171 86.0775Z" fill="#101218"/>
<path fill-rule="evenodd" clip-rule="evenodd" d="M40.1711 83.3679C39.5559 83.3679 39.0565 83.8653 39.0565 84.4797C39.0565 85.094 39.5559 85.5915 40.1711 85.5915C40.7862 85.5915 41.2856 85.094 41.2856 84.4797C41.2856 83.8653 40.7862 83.3679 40.1711 83.3679ZM38.0809 84.4797C38.0809 83.3291 39.0163 82.3958 40.1711 82.3958C41.3258 82.3958 42.2612 83.3291 42.2612 84.4797C42.2612 85.6302 41.3258 86.5636 40.1711 86.5636C39.0163 86.5636 38.0809 85.6302 38.0809 84.4797Z" fill="#FFB200"/>
<path d="M89.1857 39.912C90.0706 39.912 90.788 39.1966 90.788 38.3142C90.788 37.4317 90.0706 36.7163 89.1857 36.7163C88.3008 36.7163 87.5834 37.4317 87.5834 38.3142C87.5834 39.1966 88.3008 39.912 89.1857 39.912Z" fill="#101218"/>
<path fill-rule="evenodd" clip-rule="evenodd" d="M89.1857 37.2024C88.5705 37.2024 88.0712 37.6998 88.0712 38.3141C88.0712 38.9285 88.5705 39.4259 89.1857 39.4259C89.8009 39.4259 90.3002 38.9285 90.3002 38.3141C90.3002 37.6998 89.8009 37.2024 89.1857 37.2024ZM87.0956 38.3141C87.0956 37.1636 88.031 36.2302 89.1857 36.2302C90.3404 36.2302 91.2758 37.1636 91.2758 38.3141C91.2758 39.4647 90.3404 40.3981 89.1857 40.3981C88.031 40.3981 87.0956 39.4647 87.0956 38.3141Z" fill="#FFB200"/>
<path d="M26 12C33.732 12 40 18.268 40 26C40 33.732 33.732 40 26 40C23.3285 40 20.8318 39.2517 18.708 37.9534L21.5461 33H26.6314C30.4974 33 33.6314 29.866 33.6314 26C33.6314 22.134 30.4974 19 26.6314 19H24.0784C23.2446 19 22.5686 19.676 22.5686 20.5098C22.5686 21.3436 23.2446 22.0196 24.0784 22.0196H26.6314C28.8297 22.0196 30.6118 23.8017 30.6118 26C30.6118 28.1983 28.8297 29.9804 26.6314 29.9804H21.1412C20.4374 29.9804 19.8461 30.4619 19.6788 31.1135C19.6665 31.1486 19.6555 31.1845 19.6457 31.221L17.971 37.4703C14.3604 34.9383 12 30.7448 12 26C12 18.268 18.268 12 26 12ZM26.6314 24.0784H23.0353C21.974 24.0784 21.1137 24.9387 21.1137 26C21.1137 27.0613 21.974 27.9216 23.0353 27.9216H26.6314C27.6926 27.9216 28.5529 27.0613 28.5529 26C28.5529 24.9387 27.6926 24.0784 26.6314 24.0784Z" fill="#FFB306"/>
<g filter="url(#filter0_d_495_2227)">
<circle cx="41" cy="87" r="29" fill="white"/>
</g>
<path d="M57 85.8947V97.2734H52.6726V85.7423C52.6555 83.1508 50.5284 81.0262 47.9317 81.0033C45.2779 80.98 43.1068 83.2181 43.1068 85.8717V97.2734H38.7793V85.7729C38.7624 83.169 36.6447 81.0424 34.0491 81.018C31.3894 80.993 29.2135 83.2354 29.2135 85.8951V97.2734H25V85.7423C25 80.7414 29.0519 76.6956 34.0544 76.6956C36.8274 76.6956 39.3087 77.9515 40.9712 79.9146C40.9735 79.9168 40.9689 79.9168 40.9712 79.9146C42.6862 77.8851 45.2979 76.6089 48.1802 76.6913C53.1132 76.8323 57 80.9603 57 85.8947Z" fill="black"/>
<g filter="url(#filter1_d_495_2227)">
<circle cx="87" cy="87" r="29" fill="white"/>
</g>
<g clip-path="url(#clip1_495_2227)">
<path d="M94.5209 102.987C94.4673 101.273 93.5301 99.6235 91.9063 98.727C87.6415 96.3723 82.03 96.3424 77.61 98.668C75.9366 99.5487 74.9603 101.101 74.9055 102.987H94.5209Z" fill="white"/>
<path d="M74.9054 102.987C74.9602 101.101 75.9366 99.5592 77.6099 98.6786C82.0299 96.353 87.6414 96.3617 91.9064 98.7164C93.5301 99.613 94.4673 101.273 94.5208 102.987H98.4196C98.4237 102.987 98.4266 102.728 98.4266 102.587C98.4266 100.513 97.9638 98.5593 97.1402 96.7975C97.0111 96.4623 96.8345 96.1212 96.6329 95.7797C98.2729 95.228 99.8783 94.9195 101.068 94.6774C102.516 94.3824 103.347 94.1915 102.861 93.794C101.805 92.9296 100.46 91.9929 100.46 91.9929C100.46 91.9929 105.863 87.5284 100.46 88.8798C99.5158 89.1154 98.6087 89.4805 97.7646 89.9649C96.2577 90.8277 95.1631 91.9436 94.4151 92.9169C91.9322 90.4329 88.5032 88.8941 84.7134 88.8941C77.1397 88.8941 71 95.0129 71 102.586C71 102.727 71.0027 102.987 71.0069 102.987H74.9054V102.987Z" fill="#414242"/>
<path d="M80.9101 102.987C80.8943 101.913 80.2843 101.049 79.5325 101.049C78.7806 101.049 78.1707 101.913 78.1548 102.987H80.9102H80.9101ZM91.2777 102.987C91.2618 101.913 90.6519 101.049 89.9 101.049C89.1482 101.049 88.5382 101.913 88.5224 102.987H91.2777Z" fill="#414242"/>
</g>
</g>
<defs>
<filter id="filter0_d_495_2227" x="0" y="46" width="82" height="82" filterUnits="userSpaceOnUse" color-interpolation-filters="sRGB">
<feFlood flood-opacity="0" result="BackgroundImageFix"/>
<feColorMatrix in="SourceAlpha" type="matrix" values="0 0 0 0 0 0 0 0 0 0 0 0 0 0 0 0 0 0 127 0" result="hardAlpha"/>
<feOffset/>
<feGaussianBlur stdDeviation="6"/>
<feComposite in2="hardAlpha" operator="out"/>
<feColorMatrix type="matrix" values="0 0 0 0 0 0 0 0 0 0 0 0 0 0 0 0 0 0 0.24 0"/>
<feBlend mode="normal" in2="BackgroundImageFix" result="effect1_dropShadow_495_2227"/>
<feBlend mode="normal" in="SourceGraphic" in2="effect1_dropShadow_495_2227" result="shape"/>
</filter>
<filter id="filter1_d_495_2227" x="46" y="46" width="82" height="82" filterUnits="userSpaceOnUse" color-interpolation-filters="sRGB">
<feFlood flood-opacity="0" result="BackgroundImageFix"/>
<feColorMatrix in="SourceAlpha" type="matrix" values="0 0 0 0 0 0 0 0 0 0 0 0 0 0 0 0 0 0 127 0" result="hardAlpha"/>
<feOffset/>
<feGaussianBlur stdDeviation="6"/>
<feComposite in2="hardAlpha" operator="out"/>
<feColorMatrix type="matrix" values="0 0 0 0 0 0 0 0 0 0 0 0 0 0 0 0 0 0 0.24 0"/>
<feBlend mode="normal" in2="BackgroundImageFix" result="effect1_dropShadow_495_2227"/>
<feBlend mode="normal" in="SourceGraphic" in2="effect1_dropShadow_495_2227" result="shape"/>
</filter>
<linearGradient id="paint0_linear_495_2227" x1="165" y1="14.7248" x2="-21.4052" y2="143.496" gradientUnits="userSpaceOnUse">
<stop stop-color="#FFB306" stop-opacity="0.4"/>
<stop offset="1" stop-color="#FFB306" stop-opacity="0"/>
</linearGradient>
<clipPath id="clip0_495_2227">
<rect width="128" height="128" fill="white"/>
</clipPath>
<clipPath id="clip1_495_2227">
<rect width="32" height="32" fill="white" transform="translate(71 71)"/>
</clipPath>
</defs>
</svg>

<svg xmlns="http://www.w3.org/2000/svg" width="128" height="128" fill="none"><g clip-path="url(#a)"><path fill="#fff" d="M0 0h128v128H0z"/><path fill="#0A0F1D" d="M0 0h128v128H0z"/><path fill="url(#b)" fill-rule="evenodd" d="M165 8.358V157H-74.691c19.99-26.253 45.842-43.618 77.556-52.096 48.068-12.85 40.5-38.656 84.194-65.368C115.68 22.04 141.661 11.646 165 8.358" clip-rule="evenodd"/><g fill="#fff" opacity=".08"><path d="M94.37 35.516h-.414v121.071h.415zM58.118 64.028h-.414v92.559h.414zM21.866 97.911h-.415v58.676h.415z"/><path d="M165 117.714H-29.49v.413H165zM165 57.595H63.815v.413H165z"/></g><path fill="#FFB200" d="M165 8v.835l-.101.015c-22.913 3.333-48.383 13.502-76.407 30.51l-.867.528c-9.562 5.84-17.18 11.924-24.005 18.83-2.487 2.517-4.833 5.1-7.378 8.086l-.915 1.08-1.172 1.408-5.745 6.982-.58.697-.589.703-.59.696-.59.691c-5.176 6.028-9.307 9.997-14.547 13.728-7.315 5.207-16.17 9.236-27.773 12.381l-.492.133c-31.55 8.427-57.283 25.656-77.208 51.697H-75l.169-.222c20.065-26.342 46.024-43.769 77.865-52.273 11.754-3.14 20.664-7.168 27.997-12.389 5.847-4.162 10.304-8.632 16.45-16.02l5.942-7.218 1.192-1.434.222-.264.774-.912c2.557-3 4.916-5.597 7.418-8.13 6.87-6.953 14.543-13.078 24.162-18.954C115.736 21.749 141.671 11.352 165 8"/><path fill="#101218" d="M40.171 86.078a1.6 1.6 0 0 0 1.602-1.598 1.6 1.6 0 0 0-1.602-1.598 1.6 1.6 0 0 0-1.602 1.598 1.6 1.6 0 0 0 1.602 1.597"/><path fill="#FFB200" fill-rule="evenodd" d="M40.171 83.368c-.615 0-1.114.497-1.114 1.112 0 .614.499 1.111 1.114 1.111.615 0 1.115-.497 1.115-1.111 0-.615-.5-1.112-1.115-1.112m-2.09 1.112c0-1.15.935-2.084 2.09-2.084 1.155 0 2.09.933 2.09 2.084 0 1.15-.935 2.084-2.09 2.084a2.087 2.087 0 0 1-2.09-2.084" clip-rule="evenodd"/><path fill="#101218" d="M89.186 39.912a1.6 1.6 0 0 0 1.602-1.598 1.6 1.6 0 0 0-1.602-1.598 1.6 1.6 0 0 0-1.603 1.598 1.6 1.6 0 0 0 1.603 1.598"/><path fill="#FFB200" fill-rule="evenodd" d="M89.186 37.202a1.113 1.113 0 1 0 0 2.224 1.113 1.113 0 1 0 0-2.224m-2.09 1.112c0-1.15.935-2.084 2.09-2.084 1.154 0 2.09.934 2.09 2.084s-.936 2.084-2.09 2.084a2.087 2.087 0 0 1-2.09-2.084" clip-rule="evenodd"/><path fill="#FFB306" d="M26 12c7.732 0 14 6.268 14 14s-6.268 14-14 14c-2.672 0-5.168-.748-7.292-2.047L21.546 33h5.085a7 7 0 1 0 0-14h-2.553a1.51 1.51 0 0 0 0 3.02h2.553a3.98 3.98 0 0 1 0 7.96h-5.49a1.51 1.51 0 0 0-1.462 1.133 1.506 1.506 0 0 0-.033.108l-1.675 6.25A13.983 13.983 0 0 1 12 26c0-7.732 6.268-14 14-14m.631 12.078h-3.596a1.922 1.922 0 1 0 0 3.844h3.596a1.922 1.922 0 0 0 0-3.844"/><g filter="url(#c)"><circle cx="41" cy="87" r="29" fill="#fff"/></g><path fill="#000" d="M57 85.895v11.378h-4.327v-11.53c-.017-2.592-2.145-4.717-4.741-4.74-2.654-.023-4.825 2.215-4.825 4.869v11.401h-4.328v-11.5c-.017-2.604-2.134-4.73-4.73-4.755-2.66-.025-4.835 2.217-4.835 4.877v11.378H25v-11.53c0-5.002 4.052-9.047 9.054-9.047a9.048 9.048 0 0 1 6.917 3.219c.003.002-.002.002 0 0a9.093 9.093 0 0 1 7.21-3.224c4.932.141 8.819 4.27 8.819 9.204"/><g filter="url(#d)"><circle cx="87" cy="87" r="29" fill="#fff"/></g><g clip-path="url(#e)"><path fill="#fff" d="M94.52 102.987a5.046 5.046 0 0 0-2.614-4.26c-4.265-2.355-9.876-2.385-14.296-.059-1.673.88-2.65 2.433-2.704 4.319z"/><path fill="#414242" d="M74.905 102.987c.055-1.886 1.032-3.428 2.705-4.308 4.42-2.326 10.031-2.317 14.296.037a5.062 5.062 0 0 1 2.615 4.271h3.899a13.61 13.61 0 0 0-1.28-6.19 6.952 6.952 0 0 0-.507-1.017c1.64-.552 3.245-.86 4.435-1.103 1.448-.295 2.279-.486 1.793-.883a45.943 45.943 0 0 0-2.401-1.801s5.403-4.465 0-3.113c-.944.235-1.851.6-2.695 1.085a11.397 11.397 0 0 0-3.35 2.952 13.675 13.675 0 0 0-9.702-4.023C77.14 88.894 71 95.013 71 102.586c0 .141.003.401.007.401z"/><path fill="#414242" d="M80.91 102.987c-.016-1.074-.626-1.938-1.377-1.938-.752 0-1.362.864-1.378 1.938zm10.368 0c-.016-1.074-.626-1.938-1.378-1.938-.752 0-1.362.864-1.378 1.938z"/></g></g><defs><clipPath id="a"><path fill="#fff" d="M0 0h128v128H0z"/></clipPath><clipPath id="e"><path fill="#fff" d="M71 71h32v32H71z"/></clipPath><filter id="c" width="82" height="82" x="0" y="46" color-interpolation-filters="sRGB" filterUnits="userSpaceOnUse"><feFlood flood-opacity="0" result="BackgroundImageFix"/><feColorMatrix in="SourceAlpha" result="hardAlpha" values="0 0 0 0 0 0 0 0 0 0 0 0 0 0 0 0 0 0 127 0"/><feOffset/><feGaussianBlur stdDeviation="6"/><feComposite in2="hardAlpha" operator="out"/><feColorMatrix values="0 0 0 0 0 0 0 0 0 0 0 0 0 0 0 0 0 0 0.24 0"/><feBlend in2="BackgroundImageFix" result="effect1_dropShadow_495_2227"/><feBlend in="SourceGraphic" in2="effect1_dropShadow_495_2227" result="shape"/></filter><filter id="d" width="82" height="82" x="46" y="46" color-interpolation-filters="sRGB" filterUnits="userSpaceOnUse"><feFlood flood-opacity="0" result="BackgroundImageFix"/><feColorMatrix in="SourceAlpha" result="hardAlpha" values="0 0 0 0 0 0 0 0 0 0 0 0 0 0 0 0 0 0 127 0"/><feOffset/><feGaussianBlur stdDeviation="6"/><feComposite in2="hardAlpha" operator="out"/><feColorMatrix values="0 0 0 0 0 0 0 0 0 0 0 0 0 0 0 0 0 0 0.24 0"/><feBlend in2="BackgroundImageFix" result="effect1_dropShadow_495_2227"/><feBlend in="SourceGraphic" in2="effect1_dropShadow_495_2227" result="shape"/></filter><linearGradient id="b" x1="165" x2="-21.405" y1="14.725" y2="143.496" gradientUnits="userSpaceOnUse"><stop stop-color="#FFB306" stop-opacity=".4"/><stop offset="1" stop-color="#FFB306" stop-opacity="0"/></linearGradient></defs></svg>
